www/assets/icons/local_hospital.svg

<svg xmlns="http://www.w3.org/2000/svg" width="24" height="24" viewBox="0 0 24 24" fill='currentColor'><path d="M19 3H5c-1.1 0-1.99.9-1.99 2L3 19c0 1.1.9 2 2 2h14c1.1 0 2-.9 2-2V5c0-1.1-.9-2-2-2m-1 11h-4v4h-4v-4H6v-4h4V6h4v4h4z"/></svg>

<svg width="24" height="24" viewBox="0 0 24 24" xmlns="http://www.w3.org/2000/svg" fill='currentColor'><path d="M19 3H5C3.9 3 3.01 3.9 3.01 5L3 19C3 20.1 3.9 21 5 21H19C20.1 21 21 20.1 21 19V5C21 3.9 20.1 3 19 3ZM18 14H14V18H10V14H6V10H10V6H14V10H18V14Z"/></svg>
